X:15931
T:Star of Munster
M:C
L:1/8
K:A Dorian
B|c2Ac B2GB|AGEF GEDF|EAAB cBcd|eaaf gedB|!
c2Ac B2GB|AGEF GEDF|EAAB cded|cABA A3:|!
d|eaab ageg|agbg agef|gfga gfef|geaf gedg|!
eaab ageg|agbg agef|g3e a3g|b3a gfe:|!
